Yaru++/apps/scalable/gallery-app.svg

<svg height="256" width="256" xmlns="http://www.w3.org/2000/svg" xmlns:xlink="http://www.w3.org/1999/xlink"><filter id="a" color-interpolation-filters="sRGB" height="1.12" width="1.12" x="-.06" y="-.06"><feGaussianBlur stdDeviation="1.2"/></filter><linearGradient id="b" gradientUnits="userSpaceOnUse" x1="103.828357" x2="239.828357" y1="71.669154" y2="151.669154"><stop offset="0" stop-opacity="0"/><stop offset=".423"/><stop offset="1" stop-opacity="0"/></linearGradient><filter id="c" color-interpolation-filters="sRGB" height="1.028" width="1.021" x="-.01" y="-.01"><feGaussianBlur stdDeviation=".7"/></filter><linearGradient id="d" gradientUnits="userSpaceOnUse" x1="103.828357" x2="161.372357" y1="73.669154" y2="107.518154"><stop offset="0" stop-opacity="0"/><stop offset="1"/></linearGradient><filter id="e" color-interpolation-filters="sRGB" height="1.28" width="1.21" x="-.1" y="-.14"><feGaussianBlur stdDeviation="7"/></filter><linearGradient id="f" gradientTransform="matrix(0 -1 1 0 -10.0054 585.9946)" gradientUnits="userSpaceOnUse" x1="88" x2="488" y1="88" y2="488"><stop offset="0" stop-opacity=".588235"/><stop offset=".88" stop-opacity="0"/><stop offset="1"/></linearGradient><filter id="g" color-interpolation-filters="sRGB" height="1.088" width="1.106" x="-.05" y="-.04"><feGaussianBlur stdDeviation="8.48"/></filter><filter id="h" color-interpolation-filters="sRGB" height="1.022" width="1.026" x="-.01" y="-.01"><feGaussianBlur stdDeviation="2.12"/></filter><path d="m189.84323 74c-70.59344 0-78.18921 7.250835-77.84323 77.98706v146.01294 146.01294c-.34598 70.73623 7.24979 77.98706 77.84323 77.98706h196.31354c70.59344 0 76.00668-7.27384 77.84323-77.98706v-146.01294-146.01294c0-70.737067-7.24979-77.98706-77.84323-77.98706z" filter="url(#h)" opacity=".1" transform="matrix(0 .5 -.5 0 276.82523 -15.328148)"/><path d="m189.84323 74c-70.59344 0-78.18921 7.250835-77.84323 77.98706v146.01294 146.01294c-.34598 70.73623 7.24979 77.98706 77.84323 77.98706h196.31354c70.59344 0 77.84323-7.24999 77.84323-77.98706v-146.01294-146.01294c0-70.737067-7.24979-77.98706-77.84323-77.98706z" fill="url(#f)" filter="url(#g)" opacity=".3" transform="matrix(0 .5 -.5 0 276.82523 -15.328148)"/><path d="m241.83043 77.478254c0-36.098811-3.69016-39.983003-39.68984-39.806081h-74.31016-74.310153c-35.99969-.176922-39.68984 3.70727-39.68984 39.806081v100.387326c0 36.09881 3.68973 39.80608 39.68984 39.80608h74.310153 74.31016c36.00011 0 39.68984-3.70727 39.68984-39.80608z" opacity=".1"/><path d="m239.82523 176.74484c0 35.29673-3.62542 39.09461-38.99353 38.92162h-73.00647-73.006463c-35.36812.17299-38.99353-3.62489-38.99353-38.92162v-98.156766c0-35.296716 3.625-38.921616 38.99353-38.921616h73.006463 73.00647c35.36853 0 38.99353 3.6249 38.99353 38.921616z" fill="#a3dbf0"/><path d="m15.896296 183.66916c.600289 28.84911 6.029994 32.15893 38.921875 31.99805h73.007809 73.00586c32.89187.16088 38.32158-3.14894 38.92187-31.99805h-207.425773z" fill="#8fbf3a"/><path d="m170.89238 39.667201-92.124993 176.000009h49.058593 73.00586c35.36811.17299 38.99414-3.62515 38.99414-38.92188v-98.158206c0-35.296721-3.62561-38.919923-38.99414-38.919923z" fill="#fff" opacity=".1"/><path d="m122.95879 39.667201-75.130853 144.001959h48l75.130853-144.001959h-43.13281z" fill="#b6e2f3"/><path d="m170.95879 39.667201-75.130853 144.001959h71.999993l69.13672-132.513678c-4.08009-10.024351-13.73982-11.488281-36.13281-11.488281z" fill="#ffda64"/><path d="m236.96465 51.155482-69.13672 132.513678h48l23.99805-45.99609v-59.085946c0-12.949189-.49714-21.623072-2.86133-27.431642z" fill="#b6e2f3"/><path d="m95.463127 94.040244-47.63477 91.628916h95.269523 24.73047l-36-69-12.32227 23.61914z" fill="url(#d)" filter="url(#e)" opacity=".3"/><path d="m183.82835 63.669154a24 24 0 0 0 -24 24 24 24 0 0 0 24 24.000006 24 24 0 0 0 24-24.000006 24 24 0 0 0 -24-24zm-88.365223 28.37109-47.63477 91.628916h95.269523 24.73047l-36-69-12.32227 23.61914z" fill="url(#b)" filter="url(#c)" opacity=".1"/><path d="m47.828357 183.66916 47.63505-91.628266 47.635043 91.628266z" fill="#f2f2f2"/><path d="m95.828357 183.66916 35.999993-69 36 69z" fill="#f9f9f9"/><circle cx="183.828" cy="89.669" filter="url(#a)" opacity=".1" r="24"/><circle cx="183.828" cy="87.669" fill="#f9f9f9" r="24"/><path d="m54.818171 39.667201c-35.36853 0-38.992187 3.623202-38.992187 38.919923v98.158206c0 .0882.0019.16224.002.25v-96.410156c-.000047-35.29672 3.625564-38.921879 38.994094-38.921879h73.005852 73.00586c35.28016 0 38.97394 3.621035 38.99219 38.671879v-1.74805c0-35.296721-3.62561-38.919923-38.99414-38.919923h-73.00586z" fill="#fff" opacity=".3"/><path d="m15.825984 174.74533v2c0 35.29673 3.624067 39.09487 38.992187 38.92188h73.007809 73.00586c35.36811.17299 38.99414-3.62515 38.99414-38.92188v-2c0 35.29673-3.62603 39.09487-38.99414 38.92188h-73.00586-73.007809c-35.36812.17299-38.992187-3.62515-38.992187-38.92188z" opacity=".2"/></svg>

<svg xmlns="http://www.w3.org/2000/svg" xmlns:osb="http://www.openswatchbook.org/uri/2009/osb" xmlns:xlink="http://www.w3.org/1999/xlink" width="256" height="256" version="1.1">
 <defs>
  <linearGradient id="linearGradient5606" osb:paint="solid">
   <stop id="stop5608" offset="0" style="stop-color:#000000"/>
  </linearGradient>
  <linearGradient id="linearGradient4526" osb:paint="solid">
   <stop id="stop4528" offset="0" style="stop-color:#ffffff"/>
  </linearGradient>
  <linearGradient id="linearGradient3600-4" osb:paint="gradient">
   <stop id="stop3602-7" offset="0" style="stop-color:#f4f4f4"/>
   <stop id="stop3604-6" offset="1" style="stop-color:#dbdbdb"/>
  </linearGradient>
  <filter style="color-interpolation-filters:sRGB" id="filter1001-5" width="1.12" height="1.12" x="-.06" y="-.06">
   <feGaussianBlur id="feGaussianBlur1003-2" stdDeviation="1.2"/>
  </filter>
  <linearGradient id="linearGradient1121-8" x1="128" x2="264" y1="100" y2="180" gradientTransform="translate(-24.171643,-28.330846)" gradientUnits="userSpaceOnUse" xlink:href="#linearGradient4463"/>
  <linearGradient id="linearGradient4463">
   <stop id="stop4465" offset="0" style="stop-color:#000000;stop-opacity:0"/>
   <stop style="stop-color:#000000" id="stop4471" offset=".423"/>
   <stop id="stop4467" offset="1" style="stop-color:#000000;stop-opacity:0"/>
  </linearGradient>
  <filter style="color-interpolation-filters:sRGB" id="filter1117-7" width="1.021" height="1.028" x="-.01" y="-.01">
   <feGaussianBlur id="feGaussianBlur1119-2" stdDeviation=".7"/>
  </filter>
  <linearGradient id="linearGradient1091-3" x1="128" x2="185.544" y1="100" y2="133.849" gradientTransform="translate(-24.171643,-26.330846)" gradientUnits="userSpaceOnUse" xlink:href="#linearGradient1129"/>
  <linearGradient id="linearGradient1129">
   <stop style="stop-color:#000000;stop-opacity:0" id="stop1123" offset="0"/>
   <stop id="stop1125" offset="1" style="stop-color:#000000"/>
  </linearGradient>
  <filter style="color-interpolation-filters:sRGB" id="filter1101-7" width="1.21" height="1.28" x="-.1" y="-.14">
   <feGaussianBlur id="feGaussianBlur1103-1" stdDeviation="7"/>
  </filter>
  <linearGradient id="linearGradient4358" x1="88" x2="488" y1="88" y2="488" gradientTransform="rotate(-90,287.9946,298)" gradientUnits="userSpaceOnUse" xlink:href="#linearGradient4360"/>
  <linearGradient id="linearGradient4360">
   <stop id="stop4362" offset="0" style="stop-color:#000000;stop-opacity:0.58823532"/>
   <stop style="stop-color:#000000;stop-opacity:0" id="stop4364" offset=".88"/>
   <stop id="stop4366" offset="1" style="stop-color:#000000"/>
  </linearGradient>
  <filter style="color-interpolation-filters:sRGB" id="filter4380" width="1.106" height="1.088" x="-.05" y="-.04">
   <feGaussianBlur id="feGaussianBlur4382" stdDeviation="8.48"/>
  </filter>
  <filter style="color-interpolation-filters:sRGB" id="filter4346" width="1.026" height="1.022" x="-.01" y="-.01">
   <feGaussianBlur id="feGaussianBlur4348" stdDeviation="2.12"/>
  </filter>
 </defs>
 <path style="opacity:0.1;filter:url(#filter4346)" d="M 189.84323,74 C 119.24979,74 111.65402,81.250835 112,151.98706 V 298 444.01294 C 111.65402,514.74917 119.24979,522 189.84323,522 H 386.15677 C 456.75021,522 462.16345,514.72616 464,444.01294 V 298 151.98706 C 464,81.249993 456.75021,74 386.15677,74 Z" transform="matrix(0,0.5,-0.5,0,276.82523,-15.328148)"/>
 <path d="M 189.84323,74 C 119.24979,74 111.65402,81.250835 112,151.98706 V 298 444.01294 C 111.65402,514.74917 119.24979,522 189.84323,522 H 386.15677 C 456.75021,522 464,514.75001 464,444.01294 V 298 151.98706 C 464,81.249993 456.75021,74 386.15677,74 Z" transform="matrix(0,0.5,-0.5,0,276.82523,-15.328148)" style="opacity:0.3;fill:url(#linearGradient4358);filter:url(#filter4380)"/>
 <path style="opacity:0.1" d="m 241.83043,77.478254 c 0,-36.098811 -3.69016,-39.983003 -39.68984,-39.806081 H 127.83043 53.520277 c -35.99969,-0.176922 -39.68984,3.70727 -39.68984,39.806081 V 177.86558 c 0,36.09881 3.68973,39.80608 39.68984,39.80608 h 74.310153 74.31016 c 36.00011,0 39.68984,-3.70727 39.68984,-39.80608 z"/>
 <path style="fill:#a3dbf0" d="m 239.82523,176.74484 c 0,35.29673 -3.62542,39.09461 -38.99353,38.92162 H 127.82523 54.818767 c -35.36812,0.17299 -38.99353,-3.62489 -38.99353,-38.92162 V 78.588074 c 0,-35.296716 3.625,-38.921616 38.99353,-38.921616 h 73.006463 73.00647 c 35.36853,0 38.99353,3.6249 38.99353,38.921616 z"/>
 <path style="fill:#8fbf3a" d="m 15.896296,183.66916 c 0.600289,28.84911 6.029994,32.15893 38.921875,31.99805 h 73.007809 73.00586 c 32.89187,0.16088 38.32158,-3.14894 38.92187,-31.99805 H 32.327937 Z"/>
 <path style="opacity:0.1;fill:#ffffff" d="M 170.89238,39.667201 78.767387,215.66721 h 49.058593 73.00586 c 35.36811,0.17299 38.99414,-3.62515 38.99414,-38.92188 V 78.587124 c 0,-35.296721 -3.62561,-38.919923 -38.99414,-38.919923 z"/>
 <path style="fill:#b6e2f3" d="M 122.95879,39.667201 47.827937,183.66916 h 48 L 170.95879,39.667201 h -43.13281 z"/>
 <path style="fill:#ffda64" d="M 170.95879,39.667201 95.827937,183.66916 H 167.82793 L 236.96465,51.155482 C 232.88456,41.131131 223.22483,39.667201 200.83184,39.667201 Z"/>
 <path style="fill:#b6e2f3" d="M 236.96465,51.155482 167.82793,183.66916 h 48 l 23.99805,-45.99609 V 78.587124 c 0,-12.949189 -0.49714,-21.623072 -2.86133,-27.431642 z"/>
 <path style="opacity:0.3;fill:url(#linearGradient1091-3);filter:url(#filter1101-7)" d="m 95.463127,94.040244 -47.63477,91.628916 h 95.269523 24.73047 l -36,-69 -12.32227,23.61914 z"/>
 <path d="m 183.82835,63.669154 a 24,24 0 0 0 -24,24 24,24 0 0 0 24,24.000006 24,24 0 0 0 24,-24.000006 24,24 0 0 0 -24,-24 z m -88.365223,28.37109 -47.63477,91.628916 h 95.269523 24.73047 l -36,-69 -12.32227,23.61914 z" style="opacity:0.1;fill:url(#linearGradient1121-8);filter:url(#filter1117-7)"/>
 <path d="M 47.828357,183.66916 95.463407,92.040894 143.09845,183.66916 Z" style="fill:#f2f2f2"/>
 <path style="fill:#f9f9f9" d="m 95.828357,183.66916 35.999993,-69 36,69 z"/>
 <circle cx="183.828" cy="89.669" r="24" style="opacity:0.1;filter:url(#filter1001-5)"/>
 <circle style="fill:#f9f9f9" cx="183.828" cy="87.669" r="24"/>
 <path style="opacity:0.3;fill:#ffffff" d="m 54.818171,39.667201 c -35.36853,0 -38.992187,3.623202 -38.992187,38.919923 v 98.158206 c 0,0.0882 0.0019,0.16224 0.002,0.25 V 80.585174 c -4.7e-5,-35.29672 3.625564,-38.921879 38.994094,-38.921879 h 73.005852 73.00586 c 35.28016,0 38.97394,3.621035 38.99219,38.671879 v -1.74805 c 0,-35.296721 -3.62561,-38.919923 -38.99414,-38.919923 h -73.00586 z"/>
 <path style="opacity:0.2" d="m 15.825984,174.74533 v 2 c 0,35.29673 3.624067,39.09487 38.992187,38.92188 h 73.007809 73.00586 c 35.36811,0.17299 38.99414,-3.62515 38.99414,-38.92188 v -2 c 0,35.29673 -3.62603,39.09487 -38.99414,38.92188 H 127.82598 54.818171 c -35.36812,0.17299 -38.992187,-3.62515 -38.992187,-38.92188 z"/>
</svg>
